X:1
T:Als Maria, die Jungfraw
T:Georg Vogler
T:Source Catechismus---Würzburg---J.Volmari---1652. Editor : André Vierendeels (25/09/17).
T:Notes : Original clefs : C1, F4 Original note values have been suarterd Text Middle German
T:Als Maria, die Jungfraw
T:©
T:©
T:©
C:Georg Vogler
Z:©
%%score [ 1 2 ]
L:1/8
Q:1/4=120
M:3/4
K:C
V:1 treble nm="Soprano" snm="S"
V:2 bass nm="Bass" snm="B"
V:1
 z2 z2 D2 | F4 G2 | A4 G2 | F2 D2 E2 | D4 d2 | d4 e2 |"^1)""^3)" d4 A2 | c4 B2 | A4 A2 | c4 c2 | %10
w: Als|Ma- *|ri- a,|die Jung- fraw|schon, ge-|bo- ren|hatt ihrn|lie- ben|Sohn, zu|Beth- le-|
w: Ne-|ben dem|schö- nen|Kin- * de-|lein, stund|Jo- seph|und Ma-|ri- a|rein, umn-|ringt mit|
 B3 c d2 | c3 B A2 | G4 ^F2 | G4 G2 | A4 ^F2 | G3 F E2 | !fermata!D4 F2 | F2 F2 F2 | F4 D2 | %19
w: hem _ in|ei- * nem|Stall, und|nicht in|Kö- nig-|li- * chem|Saal, wick-|let sie ihn|in Win-|
w: ei- * ner|gros- * sen|Schaar der|lie- ben|En- ge-|lein hell und|klar, die|sun- gen mit|in- nig-|
 F3 G FE | D4 D2 | F2 F2 G2 | A4 B2 | c3 B AG | !fermata!A6 | D3 E FG | A4 G2 | F2 D2 E2 | F6 |] %29
w: de- * * *|lein, _|legt ihn in|das Krip-|* * pe- *|lein,|Al- le- * *|lu- ja,|Al- le- lu-|ja.|
w: Lob, _ _ _|Preysz und|Danck in E-||wig- * * *|keit,|Al- le- * *|lu- ja,|Al- le- lu-|ja.|
V:2
"^2)" z2 z2 D,2 |"^1)" D,4 C,2 | F,4 C,2 | D,2 D,2 A,,2 | D,4 D,2 | G,4 C,2 | D,4 D,2 | A,,4 E,2 | %8
w: Als|Ma- *|ri- a,|die Jung- fraw|schon, ge-|bo- ren|hatt ihrn|lie- ben|
w: Jo-|seph, fromm|Gott- *|se- lig Mann,|Zünd dann|im _|Stall sein|Ker- tzen|
 A,,4 D,2 | C,3 B,, A,,2 | G,,3 A,, B,,2 | C,4 D,2 | G,,4 D,2 | G,4 E,2 | D,4 D,2 | G,,4 A,,2 | %16
w: Sohn, zu|Beth- * le-|hem _ in|ei- nem|Stall, und|nicht in|Kö- nig-|li- chem|
w: an, sucht|ob _ er-|umb _ sein|E- del|Kind im|Geist ge-|bor- ne|Chri- ste|
 !fermata!D,4 D,2 | F,2 F,2 F,2 | F,4 D,2 | _B,,3 G,, A,,C, | G,,4 F,,2 | D,2 D,2 C,2 | A,4 D,2 | %23
w: Saal, wick-|let sie ihn|in Win-|de- * * *|lein, _|legt ihn in|das Krip-|
w: sind, und|treibt da- nach|mit sei-||Stab Hey-|den, Ju- den|und Ket|
 C,3 G,, C,E, | !fermata!D,6 | D,3 A,, D,C, | F,,4 C,2 | D,2 _B,,2 A,,2 | D,6 |] %29
w: * * pe- *|lein,|Al- le- * *|lu- ja,|Al- le- lu-|ja.|
w: _ _ zer _|ab,|Al- le- * *|lu- ja,|Al- le li-|ja.|

